app/assets/images/heroicons/solid/document-currency-rupee.svg

<svg width="24" height="24" viewBox="0 0 24 24" fill="none" xmlns="http://www.w3.org/2000/svg">
<path fill-rule="evenodd" clip-rule="evenodd" d="M3.75 3.375C3.75 2.33947 4.58947 1.5 5.625 1.5H9C11.0711 1.5 12.75 3.17893 12.75 5.25V7.125C12.75 8.16053 13.5895 9 14.625 9H16.5C18.5711 9 20.25 10.6789 20.25 12.75V20.625C20.25 21.6605 19.4105 22.5 18.375 22.5H5.625C4.58947 22.5 3.75 21.6605 3.75 20.625V3.375ZM14.25 5.25C14.25 3.93695 13.768 2.73648 12.9712 1.8159C16.3701 2.70377 19.0462 5.37988 19.9341 8.77881C19.0135 7.98204 17.8131 7.5 16.5 7.5H14.625C14.4179 7.5 14.25 7.33211 14.25 7.125V5.25ZM9.75002 10.5C9.33581 10.5 9.00002 10.8358 9.00002 11.25C9.00002 11.6642 9.33581 12 9.75002 12H10.125C10.8939 12 11.5547 12.4628 11.844 13.125H9.75002C9.33581 13.125 9.00002 13.4608 9.00002 13.875C9.00002 14.2892 9.33581 14.625 9.75002 14.625H11.844C11.5547 15.2872 10.8939 15.75 10.125 15.75H9.75002C9.44668 15.75 9.1732 15.9327 9.05711 16.213C8.94103 16.4932 9.00519 16.8158 9.21969 17.0303L11.4697 19.2803C11.7626 19.5732 12.2375 19.5732 12.5304 19.2803C12.8232 18.9874 12.8232 18.5126 12.5304 18.2197L11.3367 17.026C12.375 16.6264 13.166 15.7284 13.4164 14.625H14.25C14.6642 14.625 15 14.2892 15 13.875C15 13.4608 14.6642 13.125 14.25 13.125H13.4164C13.3238 12.717 13.1573 12.337 12.9317 12H14.25C14.6642 12 15 11.6642 15 11.25C15 10.8358 14.6642 10.5 14.25 10.5H10.5C10.4593 10.5 10.4193 10.5033 10.3803 10.5095C10.296 10.5032 10.2109 10.5 10.125 10.5H9.75002Z" fill="black"/>
</svg>

<svg xmlns="http://www.w3.org/2000/svg" viewBox="0 0 24 24" fill="currentColor" aria-hidden="true" data-slot="icon">
  <path fill-rule="evenodd" d="M3.75 3.375c0-1.036.84-1.875 1.875-1.875H9a3.75 3.75 0 0 1 3.75 3.75v1.875c0 1.036.84 1.875 1.875 1.875H16.5a3.75 3.75 0 0 1 3.75 3.75v7.875c0 1.035-.84 1.875-1.875 1.875H5.625a1.875 1.875 0 0 1-1.875-1.875V3.375Zm10.5 1.875a5.23 5.23 0 0 0-1.279-3.434 9.768 9.768 0 0 1 6.963 6.963A5.23 5.23 0 0 0 16.5 7.5h-1.875a.375.375 0 0 1-.375-.375V5.25Zm-4.5 5.25a.75.75 0 0 0 0 1.5h.375c.769 0 1.43.463 1.719 1.125H9.75a.75.75 0 0 0 0 1.5h2.094a1.875 1.875 0 0 1-1.719 1.125H9.75a.75.75 0 0 0-.53 1.28l2.25 2.25a.75.75 0 0 0 1.06-1.06l-1.193-1.194a3.382 3.382 0 0 0 2.08-2.401h.833a.75.75 0 0 0 0-1.5h-.834A3.357 3.357 0 0 0 12.932 12h1.318a.75.75 0 0 0 0-1.5H10.5c-.04 0-.08.003-.12.01a3.425 3.425 0 0 0-.255-.01H9.75Z" clip-rule="evenodd"/>
</svg>
